!!!!SEGMENT: pl-kk--kk-i-1--010_anonim--quoniam-rex-noster.krn
!!!cenid: 15xx:690
!!!COM: Anonim
!!!COM-rismID: pe30004985
!!!CDT:
!!!CNT:
!!!OTL: Quoniam rex noster
!!!PDT:
!!!AGN:
!!!SMS-siglum: PL-Kk
!!!SMS-shelfmark: Kk.I.1
!!!SMS-shelfwork: 010 W
!!!SMS-variant:
!!!SMS-altvar:
!!!NIFC-rismSourceID: 300257964
!!!NIFC-islandoraID: pl-kk:1
!!!URL-pdf-islandora: https://repozytorium.nifc.pl/islandora/object/pl-kk%3A1/datastream/PDF/view
!!!URL-scan: https://polish.musicsources.pl/pl/lokalizacje/galeria/rekopisy/5736 @EN{Scan on Polish Music Herritage in Open Access Website} @PL{Skany w portalu Dziedzictwo Muzyki Polskiej w otwartym dostępie}
!!!ONB-nifc: UWAGA: Cantus (s. 61v, skan 0064), Altus (s. 61v-62r, skan 0254), Tenor (s. 61r-v, skan 0449-0450), Bassus (s. 59v-60r, skan 0621).
!!!AIN: 1 alto 1 bass 1 ctenor 1 soprn 1 tenor
!!!key:
**kern	**text	**kern	**text	**kern	**kern	**text	**kern	**text
*part5	*part5	*part4	*part4	*part3	*part2	*part2	*part1	*part1
*staff5	*staff5	*staff4	*staff4	*staff3	*staff2	*staff2	*staff1	*staff1
*I"BASSVS	*	*I"TENOR	*	*I"[QVINTVS]	*I"ALTVS	*	*I"CANTVS	*
*I'B	*	*I'T	*	*I'[Q]	*I'A	*	*I'C	*
*Ibass	*	*Itenor	*	*Ictenor	*Ialto	*	*Isoprn	*
*ICvox	*	*ICvox	*	*ICvox	*ICvox	*	*ICvox	*
*IG	*	*	*	*	*	*	*	*
*clefF4	*	*clefC4	*	*clefC3	*clefC3	*	*clefC2	*
*k[]	*	*k[]	*	*k[]	*k[]	*	*k[]	*
*a:	*	*a:	*	*a:	*a:	*	*a:	*
*M2/1	*	*M2/1	*	*M2/1	*M2/1	*	*M2/1	*
*met(C|)	*	*met(C|)	*	*met(C|)	*met(C|)	*	*met(C|)	*
=1-	=1-	=1-	=1-	=1-	=1-	=1-	=1-	=1-
!	!	!	!	!LO:TX:t=P:problem=głosu Quintus nie ma w Kk I.1\nJest w Kk I.360\nJakby co, to mam przepisany. 	!	!	!	!
1E	Quo-	1E	Quo-	0ryy	2.B/	Quo-	1g	Quo ­
.	.	.	.	.	4c/	-ni-	.	.
1D	-ni-	1F	.	.	2d\	-am	2a\	.
.	.	.	.	.	2d\	.	2a\	­ ni-
=2-	=2-	=2-	=2-	=2-	=2-	=2-	=2-	=2-
1E	-am	0G	.	0ryy	1B	.	1g	-am
1C	rex	.	.	.	2e\	rex	2.cc\	.
.	.	.	.	.	2.e\	.	.	.
.	.	.	.	.	.	.	4b\	.
=3-	=3-	=3-	=3-	=3-	=3-	=3-	=3-	=3-
*	*	*lig	*	*	*	*	*	*
1D	.	1F	.	0ryy	.	.	4a\	.
.	.	.	.	.	8d\L	no-	4g\	.
.	.	.	.	.	8c\J	.	.	.
.	.	.	.	.	2d\	-ſter	2a\	rex
2C/	nos-	1E	.	.	2e\	.	1e	.
2C/	-ter	.	.	.	2c/	.	.	.
*	*	*Xlig	*	*	*	*	*	*
=4-	=4-	=4-	=4-	=4-	=4-	=4-	=4-	=4-
*	*	*lig	*	*	*	*	*	*
2.F\	.	1D	-ni-	0ryy	1d	.	2f\	.
.	.	.	.	.	.	.	2f\	.
8E\L	.	.	.	.	.	.	.	.
8D\J	.	.	.	.	.	.	.	.
2C/	.	1E	.	.	2c/	.	2g\	.
2.AA/	.	.	.	.	1a\	.	2.c/	.
*	*	*Xlig	*	*	*	*	*	*
=5-	=5-	=5-	=5-	=5-	=5-	=5-	=5-	=5-
.	.	1E,	-am	0ryy	.	.	.	.
4BB/	.	.	.	.	.	.	4d/	.
4C/	.	.	.	.	4g\	.	4e/	.
4D/	.	.	.	.	4f\	.	4f/	.
2E\	.	1E,	rex	.	2.e\	.	2g\	.
1C/	.	.	.	.	.	.	2.e/	.
.	.	.	.	.	4d\	.	.	.
=6-	=6-	=6-	=6-	=6-	=6-	=6-	=6-	=6-
.	.	1G	nos-	0ryy	2c/	.	.	.
.	.	.	.	.	.	.	4f\	.
2BB/	.	.	.	.	2d\	.	1g	.
*	*	*lig	*	*	*	*	*	*
2C/	.	1G	-ter	.	2e\	.	.	.
*	*	*	*	*	*custos:f	*	*	*
2GG/	.	.	.	.	2d\	.	2g\	.
!	!	!	!	!	!LO:LB:g=original	!	!	!
=7-	=7-	=7-	=7-	=7-	=7-	=7-	=7-	=7-
2D/	.	1A	.	0ryy	2f\	.	2f\	.
*custos:D	*	*	*	*	*	*	*	*
2AA/	.	.	.	.	2e\	.	2.a\	noſ-
!LO:LB:g=original	!	!	!	!	!	!	!	!
*	*	*Xlig	*	*	*	*	*	*
*	*	*lig	*	*	*	*	*	*
2D\	.	1A	ſpe-	.	2d\	.	.	.
.	.	.	.	.	.	.	4g\	.
1F\	ſpe-	.	.	.	4c/	.	1f\	.
.	.	.	.	.	4B/	.	.	.
=8-	=8-	=8-	=8-	=8-	=8-	=8-	=8-	=8-
.	.	1c	.	0ryy	4c/	ſpe-	.	.
.	.	.	.	.	4d\	.	.	.
1C	-rat	.	.	.	2e\	-rat	4e/	-ter
.	.	.	.	.	.	.	4d/	.
*	*	*Xlig	*	*	*	*	*	*
.	.	1G	-rat	.	2c/	.	4e/	.
.	.	.	.	.	.	.	4f\	ſpe-
1GG/	.	.	.	.	2.d\	in	4g\	.
.	.	.	.	.	.	.	4f\	.
=9-	=9-	=9-	=9-	=9-	=9-	=9-	=9-	=9-
*	*	*custos:E	*	*	*	*	*	*
.	.	1G	in	0ryy	.	.	4g\	-rat
.	.	.	.	.	4c/	.	4a\	.
*	*	*	*	*	*	*	*custos:cc	*
!	!	!LO:LB:g=original	!	!	!	!	!	!
2GG/	in	.	.	.	2d\	te	2b\	.
!	!	!	!	!	!	!	!LO:LB:g=original	!
*	*	*lig	*	*	*	*	*	*
2C/	te	1E	te	.	2g\	.	2.cc\	.
2E\	.	.	.	.	2.g\	.	.	.
.	.	.	.	.	.	.	4b\	.
=10-	=10-	=10-	=10-	=10-	=10-	=10-	=10-	=10-
1D	Do-	1F	.	0ryy	.	.	4a\	.
.	.	.	.	.	8f\L	.	4g\	.
.	.	.	.	.	8e\J	.	.	.
.	.	.	.	.	2f\	.	2a\	in
*	*	*Xlig	*	*	*	*	*	*
*	*	*lig	*	*	*	*	*	*
2GG/	.	1G	.	.	2d\	.	2g\	.
2C/	-mi-	.	.	.	2e\	.	2.e/	.
=11-	=11-	=11-	=11-	=11-	=11-	=11-	=11-	=11-
1D	-ne	1F	.	0ryy	2A/	.	.	.
.	.	.	.	.	.	.	8d/L	te
.	.	.	.	.	.	.	8c/J	.
.	.	.	.	.	2.d\	Do-	2d/	.
*	*	*Xlig	*	*	*	*	*	*
1AA	.	1E	.	.	.	.	1e	.
.	.	.	.	.	8c/L	-mi-	.	.
.	.	.	.	.	8B/J	.	.	.
!	!	!	!	!	!LO:TX:b:t=P:problem=# below	!	!	!
.	.	.	.	.	2c#X/	-ne	.	.
=12-	=12-	=12-	=12-	=12-	=12-	=12-	=12-	=12-
2D/	.	1D	Do-	0ryy	0d	.	2.f\	Do-
2.F\	.	.	.	.	.	.	.	.
.	.	.	.	.	.	.	4e\	.
*	*	*lig	*	*	*	*	*	*
.	.	1D	-mi-	.	.	.	4f\	-mi-
4E\	.	.	.	.	.	.	4g\	.
2D/	.	.	.	.	.	.	4a\	-ne
.	.	.	.	.	.	.	4f\	.
=13-	=13-	=13-	=13-	=13-	=13-	=13-	=13-	=13-
2C/	.	1E	.	0ryy	2r	.	2g\	.
4AA/	.	.	.	.	1cny	in-	2a\	.
4BB/	.	.	.	.	.	.	.	.
*	*	*Xlig	*	*	*	*	*	*
4C/	.	1E,	-ne	.	.	.	2g\	.
4D/	.	.	.	.	.	.	.	.
*	*	*	*	*	*custos:d	*	*	*
4E\	.	.	.	.	2B/	-ue-	2e/	.
!	!	!	!	!	!LO:LB:g=original	!	!	!
4C/	.	.	.	.	.	.	.	.
=14-	=14-	=14-	=14-	=14-	=14-	=14-	=14-	=14-
4D/	.	1F	in-	0ryy	2d\	-ni-	1a	in-
4E\	.	.	.	.	.	.	.	.
2F\	.	.	.	.	4A/	-a-	.	.
.	.	.	.	.	4B/	.	.	.
2C/	.	1E	-ue-	.	4c\	-tur	2g\	-ue-
.	.	.	.	.	4d\	.	.	.
*custos:D	*	*	*	*	*	*	*	*
2AA/	.	.	.	.	4e\	.	2a\	-ni-
!LO:LB:g=original	!	!	!	!	!	!	!	!
.	.	.	.	.	4c\	.	.	.
=15-	=15-	=15-	=15-	=15-	=15-	=15-	=15-	=15-
1D	in-	1D	-ni-	0ryy	1d	.	1f	-a-
!LO:TX:b:t=P:problem=# below	!	!	!	!	!	!	!	!
2C#X/	-ue-	1E	-a-	.	2r	.	1e	-tur
2C#/	-ni-	.	.	.	2A/	ma-	.	.
=16-	=16-	=16-	=16-	=16-	=16-	=16-	=16-	=16-
1D	-a-	1F,	-tur	0ryy	2.d\	.	1d	.
.	.	.	.	.	4c/	-nus	.	.
1GG	-tur	1G	ma-	.	4B/	.	2r	.
.	.	.	.	.	4A/	.	.	.
.	.	.	.	.	1B/	tu-	1g\	in-
=17-	=17-	=17-	=17-	=17-	=17-	=17-	=17-	=17-
2r	.	1G	-nus	0ryy	.	.	.	.
2G\	.	.	.	.	2B/	-a	2d/	-ue-
!LO:TX:b:t=P:problem=# below	!	!	!	!	!	!	!	!
*	*	*lig	*	*	*	*	*	*
2F#X\	.	1A	.	.	2A/	.	2a\	-ni-
2F#\	.	.	.	.	1d\	.	2a\	-a-
=18-	=18-	=18-	=18-	=18-	=18-	=18-	=18-	=18-
!	!	!	!	!	!	!	!	!
1G	.	1G,	.	0ryy	.	.	2.b-X\	-tur
!	!	!LO:PB:g=original	!	!	!	!	!	!
.	.	.	.	.	2d\	.	.	.
.	.	.	.	.	.	.	4a\	.
*	*	*	*	*	*	*	*custos:g	*
*	*	*Xlig	*	*	*	*	*	*
1Cny	.	1E	tu-	.	2.c/	om-	2g\	ma-
!	!	!	!	!	!	!	!LO:LB:g=original	!
.	.	.	.	.	.	.	2g\	-nus
.	.	.	.	.	4d\	.	.	.
=19-	=19-	=19-	=19-	=19-	=19-	=19-	=19-	=19-
2AA/	ma-	1E	-a	0ryy	4e\	-ni-	2a\	.
.	.	.	.	.	4f\	.	.	.
2.E\	-nus	.	.	.	2g\	-bus	2.g\	tu-
.	.	1G	om-	.	1g	.	.	.
4D/	.	.	.	.	.	.	4f\	-a
4C/	tu-	.	.	.	.	.	2e/	.
4BB/	-a	.	.	.	.	.	.	.
=20-	=20-	=20-	=20-	=20-	=20-	=20-	=20-	=20-
*	*	*lig	*	*	*	*	*	*
4AA/	.	1A	.	0ryy	2r	.	1cc	.
4GG/	.	.	.	.	.	.	.	.
2.AA/	om-	.	.	.	2.e\	.	.	.
.	.	1c	.	.	.	.	2a\	.
4BB/	-ni-	.	.	.	4d\	.	.	.
*	*	*	*	*	*custos:c	*	*	*
2C/	.	.	.	.	2.c/	.	2g\	.
!	!	!	!	!	!LO:LB:g=original	!	!	!
*	*	*Xlig	*	*	*	*	*	*
=21-	=21-	=21-	=21-	=21-	=21-	=21-	=21-	=21-
2.FF/	-bus	1c	-ni-	0ryy	.	.	2.a\	om-
.	.	.	.	.	4B/	.	.	.
.	.	.	.	.	2.A/	.	.	.
4GG/	.	.	.	.	.	.	4bny\	-ni-
1AA	.	1c	-bus	.	.	.	2cc\	-bus
.	.	.	.	.	4G/	.	.	.
.	.	.	.	.	2.A/	.	4f\	.
.	.	.	.	.	.	.	4g\	.
=22-	=22-	=22-	=22-	=22-	=22-	=22-	=22-	=22-
2r	.	1c	i-	0ryy	.	.	4a\	.
.	.	.	.	.	4B/	.	4g\	.
4AA/	.	.	.	.	2c/	.	2.a\	i-
4GG/	.	.	.	.	.	.	.	.
2.AA/	.	1c	-ni-	.	1A	.	.	.
.	.	.	.	.	.	.	4b\	-ni-
.	.	.	.	.	.	.	2cc\	-mi-
*custos:C	*	*	*	*	*	*	*	*
4BB/	.	.	.	.	.	.	.	.
!LO:LB:g=original	!	!	!	!	!	!	!	!
=23-	=23-	=23-	=23-	=23-	=23-	=23-	=23-	=23-
*	*	*lig	*	*	*	*	*	*
2C/	.	1c	-mi-	0ryy	2r	.	2g\	-cis
2FF/	.	.	.	.	2A/	i-	2a\	e-
1GG	.	1B	.	.	2.B/	-ni-	2g\	-ius
.	.	.	.	.	.	.	2.g\	.
.	.	.	.	.	4c/	-mi-	.	.
*	*	*Xlig	*	*	*	*	*	*
=24-	=24-	=24-	=24-	=24-	=24-	=24-	=24-	=24-
*	*	*lig	*	*	*	*	*	*
1D	i-	1A	-cis	0ryy	2d\	-ciſ	.	.
.	.	.	.	.	.	.	8f\L	et
.	.	.	.	.	.	.	8e\J	.
.	.	.	.	.	2d\	e-	2f\	.
1GG	-ni-	1G	.	.	1B	-iuſ	1g	dex-
*	*	*Xlig	*	*	*	*	*	*
=25-	=25-	=25-	=25-	=25-	=25-	=25-	=25-	=25-
1D	-mi-	1A	e-	0ryy	1A	.	4f\	.
.	.	.	.	.	.	.	4g\	.
.	.	.	.	.	.	.	4a\	.
*	*	*	*	*	*	*	*custos:g	*
.	.	.	.	.	.	.	4f\	.
!	!	!	!	!	!	!	!LO:LB:g=original	!
1E	-ciſ	1G	-ius	.	2.e\	.	1g	-te-
.	.	.	.	.	4d\	.	.	.
=26-	=26-	=26-	=26-	=26-	=26-	=26-	=26-	=26-
1.Fny	e-	1A	et	0ryy	4c\	.	1c	-ra
.	.	.	.	.	4B/	et	.	.
.	.	.	.	.	2.A/	.	.	.
.	.	1c	dex-	.	.	.	1.cc	tu-
.	.	.	.	.	4B/	dex-	.	.
1C/	-iuſ	.	.	.	4c/	.	.	.
.	.	.	.	.	4d\	-te-	.	.
=27-	=27-	=27-	=27-	=27-	=27-	=27-	=27-	=27-
.	.	1G	-te-	0ryy	4e\	.	.	.
.	.	.	.	.	4f\	-ra	.	.
1GG	.	.	.	.	1g	.	2b\	-a
*	*	*custos:F	*	*	*	*	*	*
.	.	1G	-ra	.	.	.	1b	.
*	*	*	*	*	*custos:f	*	*	*
!	!	!LO:LB:g=original	!	!	!	!	!	!
2GG/	et	.	.	.	2d\	.	.	.
!	!	!	!	!	!LO:LB:g=original	!	!	!
=28-	=28-	=28-	=28-	=28-	=28-	=28-	=28-	=28-
1D	dex-	1F	tu-	0ryy	2f\	.	1a	con-
.	.	.	.	.	2.d\	.	.	.
*	*	*lig	*	*	*	*	*	*
2D/	-te-	1F	-a	.	.	.	2a\	-te-
.	.	.	.	.	4e\	.	.	.
2D/	-ra	.	.	.	4f\	.	2a\	-rat
.	.	.	.	.	4d\	tu-	.	.
=29-	=29-	=29-	=29-	=29-	=29-	=29-	=29-	=29-
!LO:TX:b:t=P:problem=# below	!	!	!	!	!	!	!	!
2C#X/	.	1E	.	0ryy	2e\	-a	2a\	.
2C#/	tu-	.	.	.	2e\	.	2.a\	e-
*	*	*Xlig	*	*	*	*	*	*
1D	-a	1D	con-	.	1f	con-	.	.
.	.	.	.	.	.	.	4a\	-oſ
*	*	*	*	*	*	*	*	*ij
.	.	.	.	.	.	.	2a\	con-
=30-	=30-	=30-	=30-	=30-	=30-	=30-	=30-	=30-
*	*	*lig	*	*	*	*	*	*
1AA	co(n)-	1E	-te-	0ryy	1e	.	1cc	-te-
1Cny	-te-	1G	.	.	2e\	-te-	2g\	-rat
.	.	.	.	.	2e\	-rat	2.g\	e-
!	!	!	!	!	!	!	!LO:TX:t=P:problem=albo eos, albo vos albo nos. We wszystkich głosach. Tekst niby oparty na psalmie 20, ale tam akurat tych słów nie ma. Filolog klasyczny mi podpowiadał, że raczej pasuje eos. Prof. Poźniak też w swoich notatkach zostawił eos, mimo że ta pierwsza litera wygląda zupełnie inaczej - ani jak "e", ani jak "v" ani "u"... 	!
*	*	*Xlig	*	*	*	*	*	*
=31-	=31-	=31-	=31-	=31-	=31-	=31-	=31-	=31-
*	*	*lig	*	*	*	*	*	*
2GG/	-rat	1G	-rat	0ryy	2d\	.	.	.
.	.	.	.	.	.	.	4f\	.
2C/	e-	.	.	.	2c/	e-	2.e/	.
*custos:AA	*	*	*	*	*	*	*	*
1D	-os	1F	.	.	1A	-oſ	.	.
!LO:LB:g=original	!	!	!	!	!	!	!	!
.	.	.	.	.	.	.	4d/	.
.	.	.	.	.	.	.	4d/	.
.	.	.	.	.	.	.	8c/L	.
.	.	.	.	.	.	.	8d/J	.
*	*	*Xlig	*	*	*	*ij	*	*
=32-	=32-	=32-	=32-	=32-	=32-	=32-	=32-	=32-
*	*ij	*	*	*	*	*	*	*
2AA/	con-	1E	e-	0ryy	1.c	con-	000e;	-oſ
*	*	*	*	*	*	*	*	*Xij
2.C/	-te-	.	.	.	.	.	.	.
.	.	0.E	-os.	.	.	.	.	.
4D/	.	.	.	.	.	.	.	.
2E\	.	.	.	.	2B/	-te-	.	.
=33-	=33-	=33-	=33-	=33-	=33-	=33-	=33-	=33-
2AA/	-rat	.	.	0ryy	2A/	-rat	.	.
1C	e-	.	.	.	2.G/	e-	.	.
.	.	.	.	.	4A/	.	.	.
!LO:TX:b:t=P:problem=# below	!	!	!	!	!	!	!	!
2GG#X/	.	.	.	.	2B/	.	.	.
=34-	=34-	=34-	=34-	=34-	=34-	=34-	=34-	=34-
1AA	.	00E	.	0ryy	1c	.	.	.
0.EE;	-os	.	.	.	0.B;	-oſ	.	.
*	*Xij	*	*	*	*	*Xij	*	*
=35-	=35-	=35-	=35-	=35-	=35-	=35-	=35-	=35-
.	.	.	.	0ryy	.	.	.	.
=-	=-	=-	=-	=-	=-	=-	=-	=-
*-	*-	*-	*-	*-	*-	*-	*-	*-
!!!system-decoration: [(s1,s2,s3,s4,s5)]
!!!ENC: Mateusz Solarz
!!!END: 2022-02-10
!!!ENC: Julita Ruszuk
!!!END: 2022-02-19
